src/ui/Svg/optimized/latest-blocks.svg

<?xml version="1.0" standalone="no"?>
<!DOCTYPE svg PUBLIC "-//W3C//DTD SVG 1.1//EN" "http://www.w3.org/Graphics/SVG/1.1/DTD/svg11.dtd">
<svg class="icon" version="1.1" viewBox="0 0 1024 1024" fill="currentColor" aria-hidden="true">
  <path d="M887.466667 306.244267h17.066666a17.066667 17.066667 0 0 0-7.918933-14.4384L887.466667 306.244267zM512 955.733333l-8.840533 14.609067a17.066667 17.066667 0 0 0 17.681066 0L512 955.733333z m375.466667-226.850133l8.840533 14.609067a17.066667 17.066667 0 0 0 8.226133-14.609067H887.466667zM136.533333 306.244267l-9.147733-14.4384a17.066667 17.066667 0 0 0-7.918933 14.4384H136.533333z m0 422.638933h-17.066666a17.066667 17.066667 0 0 0 8.226133 14.609067L136.533333 728.8832zM512 68.266667l9.147733-14.404267a17.066667 17.066667 0 0 0-18.295466 0L512 68.266667z m0 475.921066l-9.147733 14.4384a17.066667 17.066667 0 0 0 18.295466 0L512 544.187733z m366.626133-252.586666l-375.466666 226.884266 17.681066 29.218134 375.466667-226.850134-17.681067-29.218133zM494.933333 533.128533V955.733333h34.133334V533.0944h-34.133334z m25.9072 437.248l375.466667-226.850133-17.681067-29.218133-375.466666 226.850133 17.681066 29.218133zM904.533333 728.8832V306.244267h-34.133333v422.638933h34.133333zM127.6928 320.853333l375.466667 226.850134 17.681066-29.218134-375.466666-226.850133-17.681067 29.218133zM520.874667 941.124267l-375.466667-226.850134-17.681067 29.218134 375.466667 226.850133 17.681067-29.218133zM153.6 728.8832V306.244267h-34.133333v422.638933h34.133333zM502.852267 82.670933l375.466666 237.9776 18.295467-28.842666-375.466667-237.943467-18.295466 28.808533z m375.466666 209.134934l-375.466666 237.9776 18.295466 28.842666 375.466667-237.9776-18.295467-28.842666z m-357.1712 237.9776l-375.466666-237.9776-18.295467 28.842666 375.466667 237.9776 18.295466-28.842666z m-375.466666-209.134934l375.466666-237.9776-18.295466-28.808533-375.466667 237.943467 18.295467 28.842666z"/>
</svg>

<svg xmlns="http://www.w3.org/2000/svg" class="icon" viewBox="0 0 1024 1024" fill="currentColor" aria-hidden="true">
  <path d="M887.467 306.244h17.066a17.067 17.067 0 00-7.919-14.438l-9.147 14.438zM512 955.734l-8.84 14.608a17.067 17.067 0 0017.68 0L512 955.733zm375.467-226.85l8.84 14.608a17.067 17.067 0 008.226-14.609h-17.066zm-750.934-422.64l-9.147-14.438a17.067 17.067 0 00-7.92 14.438h17.067zm0 422.64h-17.066a17.067 17.067 0 008.226 14.608l8.84-14.609zM512 68.266l9.148-14.405a17.067 17.067 0 00-18.296 0L512 68.267zm0 475.92l-9.148 14.44a17.067 17.067 0 0018.296 0L512 544.186zm366.626-252.586L503.16 518.485l17.682 29.218 375.466-226.85-17.68-29.218zM494.933 533.13v422.604h34.134V533.094h-34.134zm25.908 437.248l375.466-226.85-17.68-29.219-375.468 226.85 17.682 29.219zm383.692-241.494V306.244H870.4v422.64h34.133zm-776.84-408.03l375.466 226.85 17.682-29.218-375.467-226.85-17.681 29.218zm393.182 620.271l-375.467-226.85-17.681 29.218 375.467 226.85 17.68-29.218zM153.6 728.884v-422.64h-34.133v422.64H153.6zM502.852 82.67L878.32 320.649l18.295-28.843L521.148 53.862l-18.296 28.809zM878.32 291.806L502.852 529.783l18.296 28.843L896.614 320.65l-18.295-28.843zM521.148 529.783L145.68 291.806l-18.295 28.843 375.466 237.977 18.296-28.843zM145.68 320.65L521.148 82.67l-18.296-28.809-375.466 237.944 18.295 28.843z"/>
</svg>
